img/icon-3.svg

<svg xmlns="http://www.w3.org/2000/svg" width="78" height="62" viewBox="0 0 78 62"><g fill="#FFF"><path d="M16.125 29.749C7.22 29.749 0 36.968 0 45.875 0 54.78 7.22 62 16.125 62S32.25 54.78 32.25 45.875c.001-8.907-7.219-16.126-16.125-16.126zm0 23.433a7.306 7.306 0 0 1-7.307-7.307 7.307 7.307 0 1 1 14.614 0 7.306 7.306 0 0 1-7.307 7.307zM60.854 45.874a8.062 8.062 0 0 0-8.062 8.062 8.062 8.062 0 1 0 16.124 0 8.06 8.06 0 0 0-8.062-8.062zm0 13.126a5.063 5.063 0 1 1 .002-10.126A5.063 5.063 0 0 1 60.854 59z"/><path d="M77.898 49.727s-2.023-15.102-2.461-18.414c-.547-4.141-3.625-4.688-3.625-4.688L66 25.946V14h-3v5.833h-4v5.295L47.188 23.75S37.438 3.688 36.626 1.875 33.5 0 33.5 0 11.125 2.375 8.75 3 5.312 6.167 5.312 6.167c-2.308 6.37-2.311 17.296-2.266 20.255a23.328 23.328 0 0 1 13.079-3.986c12.944 0 23.438 10.493 23.438 23.439 0 2.438-.373 4.789-1.064 7h10.164c.39-6.402 5.69-11.479 12.191-11.479s11.802 5.077 12.191 11.479H75c3.641 0 2.898-3.148 2.898-3.148zM23.083 19.833h-6.958V6.167h6.958v13.666zm10 0h-6.958V6.167h6.958v13.666zM53.016 36H49v-7h4.016v7zm7 0H56v-7h4.016v7zm7 0H63v-7h4.016v7z"/></g></svg>

<?xml version="1.0" encoding="utf-8"?>
<!-- Generator: Adobe Illustrator 15.0.0, SVG Export Plug-In . SVG Version: 6.00 Build 0)  -->
<!DOCTYPE svg PUBLIC "-//W3C//DTD SVG 1.1//EN" "http://www.w3.org/Graphics/SVG/1.1/DTD/svg11.dtd">
<svg version="1.1" id="Layer_1" xmlns="http://www.w3.org/2000/svg" xmlns:xlink="http://www.w3.org/1999/xlink" x="0px" y="0px"
	 width="78px" height="62px" viewBox="0 0 78 62" enable-background="new 0 0 78 62" xml:space="preserve">
<g>
	<path fill="#FFFFFF" d="M16.125,29.749C7.22,29.749,0,36.968,0,45.875C0,54.78,7.22,62,16.125,62s16.125-7.22,16.125-16.125
		C32.251,36.968,25.031,29.749,16.125,29.749z M16.125,53.182c-4.036,0-7.307-3.271-7.307-7.307c0-4.037,3.271-7.308,7.307-7.308
		s7.307,3.271,7.307,7.308C23.433,49.91,20.162,53.182,16.125,53.182z"/>
	<path fill="#FFFFFF" d="M60.854,45.874c-4.453,0-8.062,3.61-8.062,8.062c0,4.453,3.609,8.063,8.062,8.063s8.062-3.61,8.062-8.063
		C68.917,49.484,65.308,45.874,60.854,45.874z M60.854,59c-2.796,0-5.062-2.268-5.062-5.063c0-2.795,2.267-5.062,5.062-5.062
		s5.062,2.268,5.062,5.062C65.917,56.732,63.65,59,60.854,59z"/>
	<path fill="#FFFFFF" d="M77.898,49.727c0,0-2.023-15.102-2.461-18.414c-0.547-4.141-3.625-4.688-3.625-4.688L66,25.946V14h-3v5.833
		h-4v5.295L47.188,23.75c0,0-9.75-20.062-10.562-21.875S33.5,0,33.5,0S11.125,2.375,8.75,3S5.312,6.167,5.312,6.167
		c-2.308,6.37-2.311,17.296-2.266,20.255c3.736-2.517,8.236-3.986,13.079-3.986c12.944,0,23.438,10.493,23.438,23.439
		c0,2.438-0.373,4.789-1.064,7h10.164c0.39-6.402,5.69-11.479,12.191-11.479s11.802,5.077,12.191,11.479H75
		C78.641,52.875,77.898,49.727,77.898,49.727z M23.083,19.833h-6.958V6.167h6.958V19.833z M33.083,19.833h-6.958V6.167h6.958V19.833
		z M53.016,36H49v-7h4.016V36z M60.016,36H56v-7h4.016V36z M67.016,36H63v-7h4.016V36z"/>
</g>
</svg>
